!!!OTL: Der Jaeger auf koeniglicher Heide
!!!OTL-incipit:Es ging ein Jaeger jagen
!!!ARE: Europa, Mitteleuropa, Deutschland (BRD), Rheinland - Pfalz, Pruem,
!!    Hallschlag
!!!YOR: 7, S. 160
!!    1928 aufgezeichnet (1926/28)
!!!SCT: Q0150B
!!!TXL: @@DE
!!!YEM: Copyright 1995, estate of Helmut Schaffrath.
**kern	**text
*ICvox	*
*M6/8	*
*k[f#]	*
*G:	*
!LO:TX:a:t=Mäßig schnell	!
{8g	1._Es
=1	=1
(8gL	ging
8e)	.
8eJ	ein
(8eL	Jä-
8f#)	.
8gJ	-ger
=2	=2
4.d	ja-
4d}	-gen
{8g	wohl
=3	=3
4f#	auf
8e	die
8dL	Lü-
8d	-ne-
16f#	-bur-
16f#J	-ger
=4	=4
4b	Heid,
8a	eins,
8b	ʒwei!
8r}	.
{8a	Es
=5	=5
4g	ging
8f#	ein
4e	Jä-
8c	-ger
=6	=6
4.d	ja-
4c}	-gen
{8g	wohl
=7	=7
4f#	auf
8a	die
8eL	Lü-
8e	-ne-
16f#	-bur-
16f#J	-ger
=8	=8
4g	Heid,
8g	eins,
8g	ʒwei!
8r}	.
==	==
!!!AGN: Ballade, Verfuehrung, verlorene Ehre; Kinder - Spiel
!! Anhaengsel an der zweiten und letzten Zeile.
!!!ONB: ESAC (Essen Associative Code) Database: BALLADE
!!!AMT: compound duple
!!!AIN: vox
!!!EED: Helmut Schaffrath
!!!EEV: 1.0
!!@@COMMENT:"A 126 582. Aus dem Hallschlager
!!Zipfel (Rheinland-Pfalʒ), 1926/28.
!!Auigeʒeichnet durch Georg Schmidt"
!!@@END:
!!!source: Deutsche Volkslieder mit ihren Melodien Balladen. Herausgegeben vom Deutschen Volksliedarchiv. Siebenterer Band. Freiburg/Breisgau 1982.
!!!page: 160
!!!ENC: Anna Maria Matuszewska
!!!EEV: 2025/03/07
*-	*-
